X:1
T:Per questa bella mano K.V. 612
T:Per questa bella mano
T:Aria KV612
T:W.A. Mozart
T:(CC0) http://creativecommons.org/publicdomain/zero/1.0/ 
T:(CC0) http://creativecommons.org/publicdomain/zero/1.0/ 
T:(CC0) http://creativecommons.org/publicdomain/zero/1.0/ 
T:(CC0) http://creativecommons.org/publicdomain/zero/1.0/ 
T:(CC0) http://creativecommons.org/publicdomain/zero/1.0/ 
T:(CC0) http://creativecommons.org/publicdomain/zero/1.0/ 
T:(CC0) http://creativecommons.org/publicdomain/zero/1.0/ 
T:(CC0) http://creativecommons.org/publicdomain/zero/1.0/ 
T:(CC0) http://creativecommons.org/publicdomain/zero/1.0/ 
C:W.A. Mozart
Z:(CC0) http://creativecommons.org/publicdomain/zero/1.0/
Z:
%%score 1 { 2 | 3 }
L:1/8
Q:3/8=40
M:6/8
K:D
V:1 bass nm="Bass"
V:2 treble nm="Piano"
V:3 bass 
V:1
!p! z | z6 | z6 | z6 | z6 | z6 | z6 | z6 | z6 | z6 | z6 | z6 | z6 | z6 | z6 | z6 | z6 | z6 | %18
w: ||||||||||||||||||
w: ||||||||||||||||||
 z2 z z2 A, | F,2 D, G,2 E, | (A,2 D) A, z A, | (G,E,) A, (F,D,) G, | (F,>G,) E, z z2 | %23
w: Per|que- sta bel- la|ma- * no per|que- * sti va- * ghi-|ra- * i|
w: |||||
 F, D, A, (G,E,) B, | (A,2 D) D2 A, | (F,>G,) A, (G,E,) A, | D,2 z z2 z | A,2 E, z2 E, | %28
w: giu- ro, mio ben, _ che|ma- * i non|a- * me- ro _ che|te.|L'au- re, le|
w: |||||
 B,2 E, z2 E, | C2 A, z2 A, | (DB,) ^G, (E,D,) B,, | %31
w: pian- te, i|sas- si, chei|miei _ sos- spir _ ben|
w: |||
[Q:3/8=20] !fermata!^G,,3({!fermata!B,,!fermata!A,,)} !fermata!G,,[Q:1/4=15] !fermata!z[Q:3/8=30] E, | %32
w: sa- no, a|
w: |
[Q:3/8=40] C2 B, A,2 =G, | (F,2 E,) D,2 C, | B,,2 (D/B,/) A,2 B, |{B,} C2 z z2 E, | %36
w: te qual sia di-|ran- * no la|mia co- * stan- te|fè, a|
w: ||||
 (A,C) ^E, (F,A,) C, | (D,F,^A,,) (B,,!breath!D,) ^G,, | (=A,,B,,C, D,E,) F, | %39
w: te _ qual sia _ di-|ran- * * no _ la|mi- * * a _ co-|
w: |||
 (E,/A,/C/B,/A,/^G,/ F,/E,/D,/C,/B,,/A,,/ | !trill(!TB,,3- !trill)!B,,2) A,, | A,,3- A,, z A, | %42
w: stan- * * * * * * * * * * *|* * te|fè. _ Per|
w: |||
 F,2 D, G,2 E, | (A,2 D) A, z A, | (G,E,) A, (F,D,) G, | (F,>G,) E, z2 z | F, D, A, (G,E,) B, | %47
w: que- sta bel- la|ma- * no, per|que- * sti va- * ghi|ra- * i|giu- ro, mio ben, _ che|
w: |||||
 (A,2 D) D2 A, | (F,>G,) A, (G,E,) A, | D,2 z z2 z | (DC) C z2 C | (D>A,) A, z2 D | D C z z2 C | %53
w: ma- * i non|a- * me- ró _ che|te.|L'au- * re, le|pian- * te, i|sas- si, chei|
w: ||||||
 D2 A, F,2 D, | =C,3 C,2 A,, | %55
w: miei so- spir ben|san- * *|
w: ||
[Q:1/4=59] F,,3[Q:1/4=53] z2 A,[Q:1/4=58][Q:1/4=57][Q:1/4=56][Q:1/4=55][Q:1/4=54][Q:1/4=52][Q:1/4=51][Q:1/4=50][Q:3/8=30] | %56
w: no, a|
w: |
[Q:3/8=40] B,2 D G,2 B, | (E,2 F,) (G,!breath!A,) B, |{B,} A,2 (G,/4F,/4E,/4D,/4) F,2 E, | (^G,,6 | %60
w: te qual sia di-|ran- * no _ la|mia co- * * * stan- te|fè,|
w: ||||
 =G,,6 | !breath!F,,2) A, B,2 D | (D3- D/C/B,/A,/G,/F,/) |{F,} !trill(!TE,3- !trill)!E,2 D, || %64
w: _|* la mia co-|stan- * * * * * *|* * te|
w: ||||
[M:4/4]"^Allegro"[Q:1/4=120] D,2 z4 z2 | z4 z2 A,G, | F,2 F,2 z F,G,A, | A,^G, =G,2 z2 G,F, | %68
w: fè.|Vol- gi|lie- ti o fie- ri|sguar- * di dim- mi|
w: |* ji|||
 E,2 z2 z E,A,G, | F,2 F,2 z2 D,A, | ^G,2 z2 z4 | z2 D2 CB,A,^G, | A,8- | A,8- | %74
w: pur che m'o- dio|m'a- mi, dim- mi|pur|che m'o _ dio _|m'a-||
w: ||||||
 A,4 A,,2[Q:1/4=30] !fermata!z2 |[Q:1/4=120] A,6 D3/2 A,/ | F,2 A,3/2 F,/ (D,E,/F,/ E,) D, | %77
w: * mi,|sem- pre ac-|ce- so ai dol- * * * ci|
w: |||
 C,2 C,2 z4 | z8 | A,6 (D>A,) | F,2 (A,>F,) (D,E,/F,/ E,) D, | C,2 C,2 z4 | z8 | %83
w: dar- di,||sem- pre _|tuo vo' _ che _ _ _ mi|chia- mi,||
w: ||||||
 z4"^Adagio" D,2 D,2 ||"^Adagio"[Q:3/8=40] D,3 F, (F,2 G,) A, | A,2 B,,2 z2 B,, B,, | %86
w: nè can-|giar puó ter- * rae|cie- lo quel de-|
w: ||che- lo * *|
 (3(B,,E,^D,) (3(E,G,F,) (3(G,B,^A, (3B,G,) E, | (=D,2 C,2) z2[Q:1/4=120]"^Allegro" E, G, || %88
w: sio _ _ che _ _ vi- * * * * vein|me _ quel de-|
w: ||
 (F,3 A,) (G,3 B,) | D,6 F,E, | D,2 z2 z2 A, A, | (D A,2) F, (G, E,2) C, | D,2 A,,2 z2 A, A, | %93
w: sio _ che _|vi- ve in|me. Vol- gi|lie- * tio fie- * ri|sguar- di, dim- mi|
w: |||||
 (D A,2) F, (G, E,2) C, | D,2 A,,2 z2 D, A, | ^G,2 z2 z4 | z2 D2 (CB,) A, ^G, | A,8- | A,8- | %99
w: pur _ che m'o- * dio|m'a- mi, dim- mi|pur|che m'o- * di o|m'a-||
w: ||||||
 A,4[Q:1/4=40] !fermata!A,,2 z2 ||[Q:1/4=120]"^Allegro" z8 | z8 | G,6 B,3/2 G,/ | %103
w: * mi.|||sem- pre ac-|
w: ||||
 E,2 (G,>E,) (C,2"^(             )" D,)E, | D,2 D,2 z4 | z8 | (G,4 G,"^(   )"B,) (G,F,) | %107
w: ce- soai _ dol- * ci|dar- di,||sem- * * pre _|
w: ||||
 (E,G,) (E,D,) (C,E,) (A,,C,) | D,2 D,2[Q:1/4=72]"^Rall." z2 A,, G,, || %109
w: tuo _ vo' _ che _ mi _|chia- mi, nè can-|
w: ||
"^Adagio"[Q:1/4=60] F,,2 A,,2 D,2 F,2 | G,2 G,,2 z2 B,, A,, | G,,2 B,,2 E,2 G,2 | %112
w: giar può ter- rae|cie- lo quel de-|sio che vi- vein|
w: |||
 A,,4[Q:1/4=40] !fermata!z2[Q:1/4=120] C, C, ||"^Allegro" D,4 G,,4 | A,,6 A,,2 | %115
w: me, quel de-|sio che|vi- vein|
w: |||
 !breath!D,2 D4 A,2 | F,2 D,2 A,,2 F,,2 | G,,2 D4 C B, |{B,} A,3 F,{A,} G,3 E, | %119
w: me, nè can-|giar può ter- rae|cie- lo quel de-|sio che vi- vein|
w: ||||
 !breath!D,2 D4 A,2 | F,2 D,2 A,,2 F,,2 | G,,4 !breath!B,4 | D4 ^G,,4 | (A,, D,2 F,2 A,2) D | %124
w: me, nè can-|giar può ter- rae|cie- lo|quel de-|sio _ _ _ che|
w: |||||
{F,} !trill(!TE,4- !trill)!E,3 D, | D,2 z2 B,2 z B, | G,2 z G, A,2 z A, | D2 z2 B,2 z B, | %128
w: vi- * vein|me, quel de-|sio che vi- vein|me, quel de-|
w: ||||
 G,2 z G, A,2 z A, | (DC) B, A, (G,F,) (E,D,) | A,6 A,2 | D,2 z2 z4 | z8 | z8 | z8 | z8 | z8 |] %137
w: sio che vi- vein|me, _ quel de- sio _ che _|vi- vein|me.||||||
w: |||||||||
V:2
!p! .A | ([DF]2 .D) ([DG]2 .E) | ([DA]2 d) [DA] z .F | ([EG][CE])A ([DF]D)G | %4
 ([DF]2 [CE]) ([eg][df][ce]) | ([df][Ad])[fa] ([eg][ce])[gb] | ([Aa]2 [dd']) [dd']2 [Aa] | %7
 ([Ff]>[Gg])[Aa] ([Gg][Ee])[Aa] | [Dd][fa][fa] [fa][eg][df] | %9
 (3z/ (A/c/ (3e/)e/e/ (3e/c/e/ (3c/A/e/ (3B/d/f/ (3[eg]/A/g/ | %10
 (3z/ (A/d/ (3f/)f/f/ (3f/d/f/ (3[df]/d/f/ (3[eg]/A/g/ (3[fa]/d/a/ | %11
 (3z/ (A/c/ (3e/)e/e/ (3e/c/e/ (3c/A/e/ (3[df]/d/f/ (3[eg]/A/g/ | %12
 (3[df]/d/f/ (3[fa]/d/a/ (3f/d/f/ [Ace]/(A/B/[Ac]/[Bd]/[ce]/) | (f/d/A/d/f/a/) (g/e/c/e/g/b/) | %14
 ([fa]2 [fd']) [dd'] d/4e/4f/4g/4 a/4b/4c'/4d'/4 | ([df]>[eg][fa]) ([eg][ce][Aa]) | %16
 [Fd] (3D/F/A/ (3d/f/[fa]/ ([fa]/[eg]/) [Ae] [egc'] | %17
 [fad'] (3D/F/A/ (3d/f/[fa]/ ([fa]/[eg]/) [Ae] [egc'] | [fad'] [F,A,D][F,A,D][F,A,D] z z | %19
 z ([DF][A,E]) z ([EG][CE]) | z ([FA][Ad]) z ([FA][DF]) | z ([EG][CA]) z ([DF][EG]) | %22
 ([DF]>[EG][CE]) ([eg][df][ce]) | z (F[FA]) z ([EG][GB]) | z ([FA][Ad]) z ([Ad][FA]) | %25
 z ([DF][FA]) z ([EG][G,CE]) | [F,D][fa][fa] ([fa][eg][df]) | %27
 z/({B,A,)^G,} (A,/C/)F/A/c/ e/c/A/E/C/A,/ | z/({FE)^D} (E/^G/)B/d/^g/ b/g/e/B/G/E/ | %29
 z/({B,A,)^G,} (A,/C/)E/G/c/ e/4d/4c/4B/4A/4^G/4F/4E/4D/4C/4B,/4A,/4 | (^G,B,D E^GB) | %31
 !fermata!d3- !fermata!d !fermata!z z | z ([EAc][D^GB]) z ([CFA][A,E=G]) | %33
 z ([A,DF][G,CE]) z ([F,B,D][E,^A,C]) | z (([B,Fd][DFB])) z ([CEA][E^GB]) | [E^GB][CEA][CEA] z2 E | %36
 (c2 B) (A2 =G) | (F2 E) (D2 d) | (c/B/)(B/A/)(A/G/) (G/F/)(F/E/)(E/^D/) | (EA) z (Ac) z | %40
 ^G3- G2 A | [Ac]([Aa][B^g] [c=g][df][ce]) | (f2 d) (g2 e) | (a (3D/F/A/ (3d/)f/a/- a z a | %44
 (ge)a (fd)g | z (3A,/C/E/ (3A/c/e/ ([Ace][df][eg]) | z (FA) z (GB) | %47
 AD3/2E/4F/4 G/4A/4B/4c/4d/4e/4f/4g/4a/4b/4c'/4d'/4 | %48
 A/[df]/[df]/[df]/A/[df]/ A/[ce]/[ce]/[ce]/A/[ce]/ | [df][fa][fa] ([fa][eg][df]) | %50
 (3z/ (A/c/ (3e/)e/e/ (3[ce]/[ce]/[ce]/ (3[ce]/A/[ce]/ (3[df]/d/[df]/ (3[eg]/A/[eg]/ | %51
 (3z/ (A/d/ (3f/)f/f/ (3[df]/[df]/[df]/ (3[df]/d/[df]/ (3[eg]/A/[eg]/ (3[fa]/d/[fa]/ | %52
 (3z/ (A/c/ (3e/)e/e/ (3[ce]/[ce]/[ce]/ (3[ce]/A/[ce]/ (3[df]/d/[df]/ (3[eg]/A/[eg]/ | [df]4 z z | %54
 (3d/[fa]/[fa]/ (3[fa]/[fa]/[fa]/ (3[fa]/d/[fa]/ (3d/[fa]/[fa]/ (3[fa]/[fa]/[fa]/ (3[fa]/d/[fa]/ | %55
"^Rall." (=c/A/F/D/=C/A,/[I:staff +1] F,/D,/B,,/A,,/F,,/D,,/) | %56
"^Tempo"[I:staff -1] z2 [dd'] [Gg]2 [Bb] | [Ee]2 [Ff] ([Gg][Aa]) [Bb] | (ba) (g/4f/4e/4d/4) f2 e | %59
 z/({GF)^E} (E/^G/)B/e/^g/ b/g/e/B/G/E/ | %60
 z/({BA)^G} (A/c/)e/a/c'/ e'/4d'/4c'/4b/4a/4g/4f/4e/4d/4c/4B/4A/4 | %61
 (3D,/F,/A,/ (3D/F/A/ (3d/d/d/ (3D,/G,/B,/ (3D/G/B/ (3d/d/d/ | A,/D/F/A/d/f/ AFd | c3- c2 d || %64
[M:4/4] [DFd]3 [Fd] [Ace]3 [Ace] | [df]3/2e/4f/4 [eg][df] [ce]2 z2 | %66
 z/ (D/E/F/ G/A/B/c/ d/A/F/A/ D) z | z/ (A,/B,/C/ D/E/F/G/ A/E/C/E/ A,) z | %68
 z/ (A,/B,/C/ D/E/F/G/ A/E/C/E/ A,) z | z/ (D/E/F/ G/A/B/c/ d/A/F/A/ D) z | %70
 z/ (D/E/F/ ^G/A/B/c/ d/)(d/e/f/ ^g/a/b/c'/ | d'2) z2 z4 | %72
 [CE]/A,/A,/A,/ A,/A,/[CE]/A,/ [DF]/A,/[DF]/A,/ [EG]/A,/[DF]/A,/ | %73
 [CE]/A,/A,/A,/ A,/A,/[CE]/A,/ [DF]/A,/[DF]/A,/ [EG]/A,/[DF]/A,/ | [CE]2 z2 !fermata!z4 | %75
 [F,A,D][F,A,D][F,A,D][F,A,D] [F,A,D][F,A,D][F,A,D][F,A,D] | %76
 [F,A,D][F,A,D][F,A,D][F,A,D] [F,A,D][F,A,D][F,A,D][F,A,D] | [G,A,C] z G3 (B/A/ G/F/E/D/ | %78
 C)(G/F/ E/D/C/B,/ A,)(E/D/ C/B,/A,/G,/ | %79
 [F,A,D])[F,A,D][F,A,D][F,A,D] [F,A,D][F,A,D][F,A,D][F,A,D] | %80
 [F,A,D][F,A,D][F,A,D][F,A,D] [F,A,D][F,A,D][F,A,D][F,A,D] | z2 G3 (B/A/ G/F/E/D/ | %82
 C)(G/F/ E/D/C/B,/ A,)(E/D/ C/B,/A,/G,/ | F,2) z2 z4 || [A,D]8 | [B,D]4 z4 | [B,E]8 | %87
 [EG]4 z2"^Allegro" z2 || [DF] (f2 a) z (g2 b) | FAFA FA[Gf][Ae] | [Fd]2 z2 z2 a>a | %91
 (d' a2 f) (g e2 c) | d A2 F GE aa | (d' a2 f) (g e2 c) | [DAd][FA][Fd][FAf] [Fd]2 z2 | %95
 z/ (D/E/F/ ^G/A/B/c/ d/)(d/e/f/ ^g/a/b/c'/ | d'2) z2 z4 | %97
 [ce]/A/A/A/ A/A/[ce]/A/ [ce]/A/[ce]/A/ [eg]/A/[df]/A/ | %98
 [ce]/A/A/A/ A/A/[ce]/A/ [df]/A/[df]/A/ [eg]/A/[df]/A/ | [ce]2 z2 z4 ||"^Allegro" A6 (d>A) | %101
 F2 (A>F) D(E/F/ E)D | (!trill(!TDC) C2 gb/a/ g/f/e/d/ | c g/f/ e/d/c/B/ A A/B/ c/d/e/c/ | %104
 a6 (d'/c'/d'/a/) | f2 (a/^g/a/f/) (de/f/ e)d | (!trill(!Tdc) c2 g(b/a/ g/f/e/d/) | %107
 c(g/f/ e/d/c/B/) AA/B/ (c/d/e/c/) | d2 z2"^Rall." (FA) (Ad) ||"^Adagio" (d3 f) (f2{gfef} ga) | %110
 (a2 B2) z2 BB | (3B(e^d) (3e(gf) (3g(b^a) (3b(ge) | (de/d/) c2 !fermata!z2 (eg) || f3 a g3 b | %114
 [Fd]AFA [Fd]A[Gf][Ae] | [Fd]D/F/ A2 z F/A/ d2 | DA/d/ f2 Dd/f/ a2 | z g/b/ d'2 z d/g/ b2 | %118
 z A/f/ a2 z A/e/ g2 | [fad'] D/F/ A2 z F/A/ d2 | [fad'] A/d/ f2 z d/f/ a2 | %121
 [gbd'] d/b/ d'2 z d/b/ d'2 | [^gd'=f'] d/=f/ d'2 z d/f/ d'2 | [ad'^f'] ^f/a/ d'2 z f/a/ d'2 | %124
 [=gc'e'] e/a/ c'2 z e/a/ c'2 | [dfad']2 [Adf]2 z2 [Bdf]2 | z2 [Bde]2 z2 [Ace]2 | %127
 z2 [Adf]2 z2 [Bdf]2 | z2 [Bde]2 z2 [Ace]2 | [df]/D/E/F/ G/A/B/c/ d/e/f/g/ a/b/c'/d'/ | %130
 z2 [Adf]>[Adf] [Ace]2 [Ace]>[Ace] | [FAd]2 [Dd]>[Dd] [Ece]2 [Ece]>[Ece] | %132
 [Fdf]2 GA/B/ c/d/e/f/ g/a/b/c'/ | [FAd]2 [Dd]>[Dd] [Ece]2 [Ece]>[Ece] | %134
 [Fdf]2 GA/B/ c/d/e/f/ g/a/b/c'/ | [fad']afa [fad']afa | [fad']2 [Dd]>[Dd] [Dd]2 z2 |] %137
V:3
!p! z | D,A,,F, E,C,G, | F,D,A, F,D,A, | E,C,A,, D,F,E, | (D,2 C,) ([A,CE][DF][EG]) | %5
 [D,,D,]3 [D,,D,]3 | [D,F,]DA, [F,A,]DD | [A,D]A,F, [A,,E,]A,C | [D,D][F,D][F,D] [F,D][A,E][DF] | %9
 [DEG] z z [E,G,C] z z | [A,DF] z z [F,A,D] z z | [G,CF] z z [E,G,A,] z z | %12
 [F,,D,F,]A,[A,,D,F,] [A,,A,] z z | [D,D][F,A,][F,A,] [D,E][G,C][G,C] | %14
 D,[F,A,D][F,A,D] F,[A,DF][A,DF] | A,[A,DF][A,DF] A,,[A,CE][A,CE] | [D,D] z z z [A,,A,][A,,A,] | %17
 [D,,D,]2 z z2 [A,,A,] | [D,,D,][D,,D,][D,,D,] [D,,D,] z z | [D,,D,] z z [D,,D,] z z | %20
 [D,,D,] z z [D,,D,] z z | [A,,,A,,] z z [A,,,A,,] z z | [A,,,A,,] z z ([A,CE][DF][EG]) | %23
 [D,,D,]3 [D,,C,]3 | [D,,D,]3 [A,,D,]3 | [A,,F,]3 [A,,A,]3 | [F,,D,][F,D][F,D] ([F,D][A,E][DF]) | %27
 [A,,A,][C,E,A,][C,E,A,] [C,E,A,][C,E,A,][C,E,A,] | %28
 [E,,E,][E,^G,B,][E,G,B,] [E,G,B,][E,G,B,][E,G,B,] | [A,,A,][E,A,C][E,A,C] [E,A,C][E,A,C][E,A,C] | %30
 [E,,^G,,B,,D,]6 | !fermata![E,,^G,,B,,]3- !fermata![E,,G,,B,,] !fermata!z z | %32
 z ([A,,A,][^E,,^E,]) z ([F,,F,][C,,C,]) | z ([D,,D,][^A,,,^A,,]) z ([B,,,B,,][C,,C,]) | %34
 [D,,D,]2 z [E,,E,]2 z | A,,A,,A,, [A,,C,][A,,C,][A,,C,] | %36
[K:bass] z2 ([C,^G,B,] [F,F,A,]) z ([A,,E,=G,] | [A,,D,F,]) z (([F,-CE] [F,B,D])) z [E,,^G,,] | %38
 (A,,B,,C, D,E,)F, | ([E,,E,] [E,A,C])[E,A,C] ([E,,E,] [E,A,C])[E,A,C] | %40
 (E,[D,^G,B,])[D,G,B,] (E,[D,G,B,])[D,G,B,] | A,,([A,,C,][B,,D,] [A,,C,E,][D,F,][E,G,]) | %42
 D,,[D,F,][A,,D,] D,,[E,G,][C,E,] | D,[F,A,][A,D] D,[F,A,][D,F,] | %44
 [A,,A,][E,G,][C,A,] [A,,A,][D,F,][D,G,] | [D,F,][E,G,][C,E,] ([E,G,][D,F,][C,E,]) | %46
 [D,A,]D,F, [D,C]E,G, | [D,D][F,A,]A, [F,A,][A,D][F,A,] | %48
 [A,,F,][D,F,G,][E,G,A,] [A,,G,][E,E,G,][C,E,A,] | [D,,D,][F,,D,][F,,D,] [F,,D,][A,,E,][D,F,] | %50
 [A,,D,A,][C,E,G,][C,E,G,] [E,G,][D,F,][C,E,] | [A,D][F,A,][F,A,] [F,A,][E,G,][D,F,] | %52
 [A,D][E,G,C][E,G,C] [E,G,A,][D,F,][C,E,A,] | [F,A,D]4 z z | [D,F,A,=C]6 | [F,A,=CD]3 z2 z | %56
 [G,,B,,D,G,] z z [G,B,D] z z | [G,,G,]B,^D [G,E]FG | [A,,A,][=D,F,][F,B,] [A,,,A,,][A,D][G,C] | %59
 [^G,,^G,][B,DE][B,DE] [G,,G,][B,DE][B,DE] | [G,CE]2 z [=G,,=G,] z z | %61
 [F,,A,,][F,,A,,][F,,A,,] [G,,B,,][G,,B,,][G,,B,,] | [A,,A,][A,DF][A,DF] [A,,A,][A,DF][A,DF] | %63
 [A,,,A,,][G,CE][G,CE] [A,,,A,,][G,CE][G,CE] ||[M:4/4] [D,,D,]3[K:treble] [F,D] [A,E]3 [A,E] | %65
 [DF]2 [CE][DF] [A,E]2 z2 |[K:bass] [D,,D,]2 [F,,A,,D,] z [F,,A,,D,] z [F,,A,,D,] z | %67
 [A,,,A,,]2 [F,,A,,D,] z [F,,A,,D,] z [F,,A,,D,] z | %68
 [A,,,A,,]2 [F,,A,,D,] z [F,,A,,D,] z [F,,A,,D,] z | [D,,D,]2 [A,,C,E,] z [A,,C,E,] z [A,,C,E,] z | %70
 [B,,,B,,]2 [B,,D,^G,] z [B,,D,G,] z [B,,D,G,] z | [B,,D,^G,]8 | %72
 [C,E,A,]2 z2 z [A,,D,F,][A,,E,G,][A,,D,F,] | [A,,C,E,]2 A,, z z [A,,D,F,][A,,E,G,][A,,D,F,] | %74
 [A,,C,E,]2 z2 !fermata!z4 | [D,,D,][D,,D,][D,,D,][D,,D,] [D,,D,][D,,D,][D,,D,][D,,D,] | %76
 [D,,D,][D,,D,][D,,D,][D,,D,] [D,,D,][D,,D,][D,,D,][D,,D,] | %77
 [E,,E,]2 [C,E,G,] z [E,G,C] z [G,CE] z | [A,,,A,,]2 [E,G,C] z [G,CE] z [CEG] z | %79
 [D,,D,][D,,D,][D,,D,][D,,D,] [D,,D,][D,,D,][D,,D,][D,,D,] | %80
 [D,,D,][D,,D,][D,,D,][D,,D,] [D,,D,][D,,D,][D,,D,][D,,D,] | %81
 [G,,A,,C,] z [C,E,G,] z [E,G,C] z [G,CE] z | [A,,,A,,]2 [E,G,C] z [G,CE] z [CEG] z | %83
 [DF]2 z2 z4 || [F,,F,]8 | [G,,G,]4 z4 | [G,,G,]8 | !fermata![A,,A,]4 z2 A,,2 || %88
 [D,,A,,]A,,D,F, [G,,,E,,A,,]A,,D,F, | [A,,A,]6 C2 | %90
 (3[D,F,]D,[D,F,] (3[F,A,]D,[F,A,] (3[E,G,]A,,[E,G,] (3[C,E,]A,,[C,E,] | %91
 (3[D,F,]D,[D,F,] (3[F,A,]D,[F,A,] (3[E,G,]A,,[E,G,] (3[C,E,]A,,[C,E,] | %92
 (3[D,F,]D,[D,F,] (3[F,A,]D,[F,A,] (3[E,G,]A,,[E,G,] (3[C,E,]A,,[C,E,] | %93
 (3[D,F,]D,[D,F,] (3[F,A,]D,[F,A,] (3[E,G,]A,,[E,G,] (3[C,E,]A,,[C,E,] | %94
 [D,F,]F,,/A,,/ D,/F,/A,/F,/ D,2 z2 | [B,,,B,,]2 [B,D^G] z [B,DG] z [B,DG] z | [B,,D,^G,]8 | %97
 z2 z2 z [A,,D,F,][A,,E,G,][A,,D,F,] | [A,,C,E,]2 z2 z [A,,D,F,][A,,E,G,][A,,D,F,] | %99
 [A,,C,E,]2 z2 !fermata!z4 || [D,,D,][F,A,][F,A,][F,A,] [F,A,][F,A,][F,A,][F,A,] | %101
 [D,,D,][F,A,][F,A,][F,A,] [F,A,][F,A,][F,A,][F,A,] | %102
 [D,,D,][G,A,C][G,A,C][G,A,C] [G,A,C][G,A,C][G,A,C][G,A,C] | %103
 [D,,D,][G,A,C][G,A,C][G,A,C] [G,A,C][G,A,C][G,A,C][G,A,C] | %104
 [D,,D,][F,A,D][F,A,D][F,A,D] [F,A,D][F,A,D][F,A,D][F,A,D] | %105
 [D,,D,][F,A,][F,A,][F,A,] [F,A,][F,A,][F,A,][F,A,] | %106
 [E,,E,][G,A,C][G,A,C][G,A,C] [G,A,C][G,A,C][G,A,C][G,A,C] | %107
 [A,,A,][G,A,C][G,A,C][G,A,C] [G,A,C][G,A,C][G,A,C][G,A,C] | %108
 [D,F,A,D]2 z2"^Rall." (F,,A,,) (A,,D,) || [A,,D,]8 | [C,E,]2 z2 z2 z2 | (([B,,E,]8 | %112
 [E,G,]4)) !fermata!z2 [E,G,]2 || [D,A,]A,DF [G,,E,B,]B,EG | [A,,A,]2 z2 A,,2 C2 | %115
 [D,D]F,A,F, D,F,A,F, | =C,F,A,F, C,F,A,F, | B,,F,A,F, G,,F,A,F, | A,,DFD A,,DFD | %119
 D,F,A,F, D,F,A,F, | =C,F,A,F, C,F,A,F, | B,,G,B,G, B,,G,B,G, | _B,,=F,^G,F, B,,F,G,F, | %123
 A,,D,^F,D, A,,D,F,D, | A,,C,E,C, G,,C,E,C, | [D,,D,]2 z2 [B,,B,]2 z2 | [G,,G,]2 z2 [A,,A,]2 z2 | %127
 [D,D]2 z2 [B,,B,]2 z2 | [G,,G,]2 z2 [A,,A,]2 z2 | %129
 [D,F,A,][C,C][B,,B,][A,,A,] [G,,G,][F,,F,][E,,E,][D,,D,] | [A,DF]2 [F,A,D]2 [A,,,A,,]2 [E,A,C]2 | %131
 [D,,D,]2 [D,F,]>[D,F,] [A,,A,]2 [A,,A,]>[A,,A,] | [D,D]2 [C,E,G,][D,F,A,] [E,A,]2 [E,A,C]2 | %133
 [D,,D,]2 [D,F,]>[D,F,] [A,,A,]2 [A,,A,]>[A,,A,] | [D,D]2 [C,E,G,][D,F,] [E,A,]2 [E,A,C]2 | %135
 [D,,D,][F,,F,][A,,A,][F,,F,] [D,,D,][F,,F,][A,,A,][F,,F,] | %136
 [D,,D,]2 [D,,D,]>[D,,D,] [D,,D,]2 z2 |] %137

